assets/Factory/Flat/factory_flat.svg

<svg width="32" height="32" viewBox="0 0 32 32" fill="none" xmlns="http://www.w3.org/2000/svg">
<path d="M5 20.88C5 20.96 5.01 21 5.03 21H7.97C7.99 21 8 20.96 8 20.88V17L7.5 15.5L8 14V11L7.5 9.5L8 8V5L6.5 4.5L5 5V8L5.5 9.5L5 11V14L5.5 15.5L5 17V20.88ZM12 20.88C12 20.96 12.01 21 12.03 21H14.97C14.99 21 15 20.96 15 20.88V17L14.5 15.5L15 14V11L14.5 9.5L15 8V5L13.5 4.5L12 5V8L12.5 9.5L12 11V14V17V20.88ZM17.866 30H30V13.13C30 12.5 29.4887 12 28.8672 12H19.1328C18.5012 12 18 12.51 18 13.13V17L17.866 17.2167V30Z" fill="#D3D3D3"/>
<path d="M2.20988 20.91L9.45534 17.28C9.70519 17.16 9.995 17.34 9.995 17.61V20.4C9.995 20.68 10.2848 20.86 10.5347 20.73L18 17V30H15.9671L13.4949 28.4635L11.0227 30H8.93989L6.43853 28.4635L3.93717 30H2V21.23C2 21.1 2.07996 20.97 2.20988 20.91Z" fill="#9B9B9B"/>
<path d="M20 14.5C20 14.2239 20.2239 14 20.5 14H21.5C21.7761 14 22 14.2239 22 14.5V15.5C22 15.7761 21.7761 16 21.5 16H20.5C20.2239 16 20 15.7761 20 15.5V14.5Z" fill="#83CBFF"/>
<path d="M20 17.5C20 17.2239 20.2239 17 20.5 17H21.5C21.7761 17 22 17.2239 22 17.5V18.5C22 18.7761 21.7761 19 21.5 19H20.5C20.2239 19 20 18.7761 20 18.5V17.5Z" fill="#83CBFF"/>
<path d="M20 20.5C20 20.2239 20.2239 20 20.5 20H21.5C21.7761 20 22 20.2239 22 20.5V21.5C22 21.7761 21.7761 22 21.5 22H20.5C20.2239 22 20 21.7761 20 21.5V20.5Z" fill="#83CBFF"/>
<path d="M23 14.5C23 14.2239 23.2239 14 23.5 14H24.5C24.7761 14 25 14.2239 25 14.5V15.5C25 15.7761 24.7761 16 24.5 16H23.5C23.2239 16 23 15.7761 23 15.5V14.5Z" fill="#83CBFF"/>
<path d="M23 17.5C23 17.2239 23.2239 17 23.5 17H24.5C24.7761 17 25 17.2239 25 17.5V18.5C25 18.7761 24.7761 19 24.5 19H23.5C23.2239 19 23 18.7761 23 18.5V17.5Z" fill="#83CBFF"/>
<path d="M23 20.5C23 20.2239 23.2239 20 23.5 20H24.5C24.7761 20 25 20.2239 25 20.5V21.5C25 21.7761 24.7761 22 24.5 22H23.5C23.2239 22 23 21.7761 23 21.5V20.5Z" fill="#83CBFF"/>
<path d="M26 14.5C26 14.2239 26.2239 14 26.5 14H27.5C27.7761 14 28 14.2239 28 14.5V15.5C28 15.7761 27.7761 16 27.5 16H26.5C26.2239 16 26 15.7761 26 15.5V14.5Z" fill="#83CBFF"/>
<path d="M26 17.5C26 17.2239 26.2239 17 26.5 17H27.5C27.7761 17 28 17.2239 28 17.5V18.5C28 18.7761 27.7761 19 27.5 19H26.5C26.2239 19 26 18.7761 26 18.5V17.5Z" fill="#83CBFF"/>
<path d="M26 20.5C26 20.2239 26.2239 20 26.5 20H27.5C27.7761 20 28 20.2239 28 20.5V21.5C28 21.7761 27.7761 22 27.5 22H26.5C26.2239 22 26 21.7761 26 21.5V20.5Z" fill="#83CBFF"/>
<path d="M21 30H27V26.3628C27 26.1623 26.8294 26 26.6187 26H21.3813C21.1706 26 21 26.1623 21 26.3628V30ZM9 30H4V27.38C4 27.17 4.17033 27 4.38075 27H8.61925C8.82967 27 9 27.17 9 27.38V30ZM16 30H11V27.38C11 27.17 11.1703 27 11.3808 27H15.6192C15.8297 27 16 27.17 16 27.38V30Z" fill="#1C1C1C"/>
<path d="M8 2.51C8 2.23 7.77001 2 7.49001 2H5.51001C5.23001 2 5 2.23 5 2.51V5H8V2.51ZM8 14H5V17H8V14ZM5 8H8V11H5V8ZM15 2.51C15 2.23 14.77 2 14.49 2H12.51C12.23 2 12 2.23 12 2.51V5H15V2.51ZM15 8H12V11H15V8ZM12 14H15V17H12V14Z" fill="#F8312F"/>
</svg>

<svg xmlns="http://www.w3.org/2000/svg" width="32" height="32" fill="none"><path fill="#D3D3D3" d="M5 20.88c0 .08.01.12.03.12h2.94c.02 0 .03-.04.03-.12V17l-.5-1.5L8 14v-3l-.5-1.5L8 8V5l-1.5-.5L5 5v3l.5 1.5L5 11v3l.5 1.5L5 17v3.88Zm7 0c0 .08.01.12.03.12h2.94c.02 0 .03-.04.03-.12V17l-.5-1.5.5-1.5v-3l-.5-1.5L15 8V5l-1.5-.5L12 5v3l.5 1.5L12 11V20.88ZM17.866 30H30V13.13c0-.63-.511-1.13-1.133-1.13h-9.734A1.13 1.13 0 0 0 18 13.13V17l-.134.217V30Z"/><path fill="#9B9B9B" d="m2.21 20.91 7.245-3.63c.25-.12.54.06.54.33v2.79c0 .28.29.46.54.33L18 17v13h-2.033l-2.472-1.537L11.023 30H8.94l-2.501-1.537L3.937 30H2v-8.77c0-.13.08-.26.21-.32Z"/><path fill="#83CBFF" d="M20 14.5a.5.5 0 0 1 .5-.5h1a.5.5 0 0 1 .5.5v1a.5.5 0 0 1-.5.5h-1a.5.5 0 0 1-.5-.5v-1ZM20 17.5a.5.5 0 0 1 .5-.5h1a.5.5 0 0 1 .5.5v1a.5.5 0 0 1-.5.5h-1a.5.5 0 0 1-.5-.5v-1ZM20 20.5a.5.5 0 0 1 .5-.5h1a.5.5 0 0 1 .5.5v1a.5.5 0 0 1-.5.5h-1a.5.5 0 0 1-.5-.5v-1ZM23 14.5a.5.5 0 0 1 .5-.5h1a.5.5 0 0 1 .5.5v1a.5.5 0 0 1-.5.5h-1a.5.5 0 0 1-.5-.5v-1ZM23 17.5a.5.5 0 0 1 .5-.5h1a.5.5 0 0 1 .5.5v1a.5.5 0 0 1-.5.5h-1a.5.5 0 0 1-.5-.5v-1ZM23 20.5a.5.5 0 0 1 .5-.5h1a.5.5 0 0 1 .5.5v1a.5.5 0 0 1-.5.5h-1a.5.5 0 0 1-.5-.5v-1ZM26 14.5a.5.5 0 0 1 .5-.5h1a.5.5 0 0 1 .5.5v1a.5.5 0 0 1-.5.5h-1a.5.5 0 0 1-.5-.5v-1ZM26 17.5a.5.5 0 0 1 .5-.5h1a.5.5 0 0 1 .5.5v1a.5.5 0 0 1-.5.5h-1a.5.5 0 0 1-.5-.5v-1ZM26 20.5a.5.5 0 0 1 .5-.5h1a.5.5 0 0 1 .5.5v1a.5.5 0 0 1-.5.5h-1a.5.5 0 0 1-.5-.5v-1Z"/><path fill="#1C1C1C" d="M21 30h6v-3.637c0-.2-.17-.363-.381-.363H21.38a.372.372 0 0 0-.381.363V30ZM9 30H4v-2.62c0-.21.17-.38.38-.38h4.24c.21 0 .38.17.38.38V30Zm7 0h-5v-2.62c0-.21.17-.38.38-.38h4.24c.21 0 .38.17.38.38V30Z"/><path fill="#F8312F" d="M8 2.51C8 2.23 7.77 2 7.49 2H5.51c-.28 0-.51.23-.51.51V5h3V2.51ZM8 14H5v3h3v-3ZM5 8h3v3H5V8Zm10-5.49c0-.28-.23-.51-.51-.51h-1.98c-.28 0-.51.23-.51.51V5h3V2.51ZM15 8h-3v3h3V8Zm-3 6h3v3h-3v-3Z"/></svg>
